Origami/48x48/apps/rochard.svg

<svg width="48" height="48" version="1" xmlns="http://www.w3.org/2000/svg">
 <rect transform="matrix(0,-1,-1,0,0,0)" x="-44" y="-44" width="40" height="40" rx="2" ry="2" style="fill:#4f4f4f"/>
 <path d="m6 4c-1.108 0-2 0.892-2 2v1c0-1.108 0.892-2 2-2h36c1.108 0 2 0.892 2 2v-1c0-1.108-0.892-2-2-2h-36z" style="fill:#ffffff;opacity:.1"/>
 <path d="m6 45c-1.108 0-2-0.892-2-2v-1c0 1.108 0.892 2 2 2h36c1.108 0 2-0.892 2-2v1c0 1.108-0.892 2-2 2h-36z" style="opacity:.2"/>
 <g transform="translate(-4,-5)">
  <path d="m38 14c-6.025541 0-10.822438 2.654568-14.052734 6.341797-3.230297 3.687229-4.947266 8.386113-4.947266 12.658203v12h2 8v-2-10c0-1.75 0.687614-4.0688 2.150391-5.869141 1.462777-1.80034 3.635323-3.130859 6.849609-3.130859v-1-1-2-2-2-1-1zm-2 2.109375v2.046875c-6.79755 0.951937-13 6.654387-13 14.84375v10h-2v-10c0-3.72791 1.54893-8.029026 4.451172-11.341797 2.536115-2.894854 6.065983-5.050879 10.548828-5.548828zm0 4.064453v2.009766c-2.78961 0.473263-4.945407 1.894797-6.400391 3.685547-1.787223 2.199659-2.599609 4.880859-2.599609 7.130859v10h-2v-10c0-7.066982 5.250967-11.89983 11-12.826172z" style="opacity:.2"/>
  <rect x="19" y="42" width="10" height="2" style="fill:#ffba40"/>
  <rect transform="rotate(90)" x="14" y="-38" width="8" height="2" style="fill:#ffba40"/>
  <path d="m20 44v-12c0-8 6.530152-18 18-18" style="fill:none;stroke-width:2;stroke:#ffba40"/>
  <path d="m24 44v-12c0-8.435137 7-14 14-14" style="fill:none;stroke-width:2;stroke:#ffba40"/>
  <path d="m28 44v-12c0-4 3-10 10-10" style="fill:none;stroke-width:2;stroke:#ffba40"/>
 </g>
</svg>

<svg xmlns="http://www.w3.org/2000/svg" width="48" height="48" version="1">
 <rect style="fill:#4f4f4f" width="40" height="40" x="-44" y="-44" rx="2" ry="2" transform="matrix(0,-1,-1,0,0,0)"/>
 <path style="opacity:0.1;fill:#ffffff" d="M 6,4 C 4.892,4 4,4.892 4,6 L 4,7 C 4,5.892 4.892,5 6,5 l 36,0 c 1.108,0 2,0.892 2,2 L 44,6 C 44,4.892 43.108,4 42,4 L 6,4 Z"/>
 <path style="opacity:0.2" d="M 6,45 C 4.892,45 4,44.108 4,43 l 0,-1 c 0,1.108 0.892,2 2,2 l 36,0 c 1.108,0 2,-0.892 2,-2 l 0,1 c 0,1.108 -0.892,2 -2,2 L 6,45 Z"/>
 <g transform="translate(-4,-5)">
  <path style="opacity:0.2" d="M 38,14 C 31.974459,14 27.177562,16.654568 23.947266,20.341797 20.716969,24.029026 19,28.72791 19,33 l 0,12 2,0 8,0 0,-2 0,-10 c 0,-1.75 0.687614,-4.0688 2.150391,-5.869141 C 32.613168,25.330519 34.785714,24 38,24 l 0,-1 0,-1 0,-2 0,-2 0,-2 0,-1 0,-1 z m -2,2.109375 0,2.046875 C 29.20245,19.108187 23,24.810637 23,33 l 0,10 -2,0 0,-10 C 21,29.27209 22.54893,24.970974 25.451172,21.658203 27.987287,18.763349 31.517155,16.607324 36,16.109375 Z m 0,4.064453 0,2.009766 c -2.78961,0.473263 -4.945407,1.894797 -6.400391,3.685547 C 27.812386,28.0688 27,30.75 27,33 l 0,10 -2,0 0,-10 c 0,-7.066982 5.250967,-11.89983 11,-12.826172 z"/>
  <rect style="fill:#ffba40" width="10" height="2" x="19" y="42"/>
  <rect style="fill:#ffba40" width="8" height="2" x="14" y="-38" transform="matrix(0,1,-1,0,0,0)"/>
  <path style="fill:none;stroke:#ffba40;stroke-width:2" d="m 20,44 0,-12 c 0,-8 6.530152,-18 18,-18 l 0,0"/>
  <path style="fill:none;stroke:#ffba40;stroke-width:2" d="m 24,44 0,-12 c 0,-8.435137 7,-14 14,-14 l 0,0"/>
  <path style="fill:none;stroke:#ffba40;stroke-width:2" d="m 28,44 0,-12 c 0,-4 3,-10 10,-10 l 0,0"/>
 </g>
</svg>
